; generated by Slic3r 1.1.7 on 2014-10-12 at 16:51:10

; perimeters extrusion width = 0.50mm
; infill extrusion width = 0.52mm
; solid infill extrusion width = 0.52mm
; top infill extrusion width = 0.52mm

G21 ; set units to millimeters
M107
M190 S50 ; wait for bed temperature to be reached
M104 S180 ; set temperature
;G28 ; home all axes
;G1 Z5 F5000 ; lift nozzle

M109 S180 ; wait for temperature to be reached
G90 ; use absolute coordinates
G92 E0
M82 ; use absolute distances for extrusion
G10 ; retract
G92 E0
G1 Z0.500 F6600.000
G1 X24.814 Y24.915 F6600.000
G11 ; unretract
G1 X26.162 Y23.573 E0.10891 F1080.000
G1 X29.744 Y20.428 E0.38196
G1 X33.517 Y17.513 E0.65503
G1 X37.466 Y14.841 E0.92809
G1 X39.259 Y13.781 E1.04745
G1 X41.120 Y13.140 E1.16018
G1 X43.083 Y13.284 E1.27291
G1 X44.831 Y14.191 E1.38565 F1080.000
G1 X46.079 Y15.712 E1.49838
G1 X46.643 Y17.992 E1.63287
G1 X46.643 Y140.008 E8.62133
G1 X46.247 Y141.936 E8.73406
G1 X45.123 Y143.552 E8.84680
G1 X43.454 Y144.595 E8.95953
G1 X41.508 Y144.895 E9.07226
G1 X39.259 Y144.219 E9.20675
G1 X37.206 Y142.994 E9.34370
G1 X33.268 Y140.306 E9.61677
G1 X29.507 Y137.376 E9.88983
G1 X26.998 Y135.164 E10.08142
G1 X25.938 Y134.216 E10.16289
G1 X22.573 Y130.838 E10.43595
G1 X19.428 Y127.256 E10.70901
G1 X16.513 Y123.483 E10.98207
G1 X13.841 Y119.534 E11.25513
G1 X11.423 Y115.426 E11.52820
G1 X9.267 Y111.173 E11.80126
G1 X7.382 Y106.794 E12.07431
G1 X5.777 Y102.305 E12.34737
G1 X4.456 Y97.724 E12.62043
G1 X3.425 Y93.069 E12.89350
G1 X2.689 Y88.359 E13.16656
G1 X2.250 Y83.612 E13.43962
G1 X2.110 Y78.846 E13.71268
G1 X2.269 Y74.081 E13.98574
G1 X2.727 Y69.336 E14.25880
G1 X3.483 Y64.629 E14.53187
G1 X4.532 Y59.978 E14.80493
G1 X5.872 Y55.402 E15.07799
G1 X7.496 Y50.920 E15.35104
G1 X9.398 Y46.549 E15.62410
G1 X11.571 Y42.305 E15.89717
G1 X14.006 Y38.206 E16.17023
G1 X16.694 Y34.268 E16.44330
G1 X19.624 Y30.507 E16.71635
G1 X22.784 Y26.938 E16.98941
G1 X24.761 Y24.968 E17.14927
G10 ; retract
G92 E0
G1 X16.777 Y80.549 F6600.000
G11 ; unretract
G1 X17.332 Y79.994 E0.04493 F360.000
G1 X17.247 Y79.537 E0.07153
G1 X17.213 Y79.000 E0.10237
G1 X17.247 Y78.463 E0.13321
G1 X17.348 Y77.934 E0.16405
G1 X17.514 Y77.422 E0.19484
G1 X17.622 Y77.174 E0.21032
G1 X17.881 Y76.703 E0.24113
G1 X18.197 Y76.268 E0.27195
G1 X18.566 Y75.875 E0.30279
G1 X18.980 Y75.532 E0.33359
G1 X19.203 Y75.381 E0.34905
G1 X19.675 Y75.121 E0.37987
G1 X19.922 Y75.014 E0.39531
G1 X20.434 Y74.848 E0.42611
G1 X20.849 Y74.765 E0.45034
G1 X21.197 Y74.417 E0.47853
G1 X21.805 Y73.914 E0.52375
G1 X22.223 Y73.638 E0.55244
G1 X22.823 Y73.312 E0.59158
G1 X23.557 Y73.021 E0.63679
G1 X24.322 Y72.825 E0.68201
G1 X25.105 Y72.726 E0.72722
G1 X25.895 Y72.726 E0.77245
G1 X26.288 Y72.763 E0.79506
G1 X27.063 Y72.911 E0.84028
G1 X27.814 Y73.155 E0.88550
G1 X28.528 Y73.491 E0.93071
G1 X28.869 Y73.692 E0.95334
G1 X29.507 Y74.156 E0.99854
G1 X30.083 Y74.696 E1.04376
G1 X30.586 Y75.305 E1.08900
G1 X31.009 Y75.971 E1.13420
G1 X31.345 Y76.686 E1.17942
G1 X31.589 Y77.437 E1.22464
G1 X31.737 Y78.212 E1.26984
G1 X31.787 Y79.000 E1.31507
G1 X31.737 Y79.788 E1.36029
G1 X31.589 Y80.563 E1.40549
G1 X31.345 Y81.314 E1.45071
G1 X31.009 Y82.029 E1.49593
G1 X30.586 Y82.695 E1.54114
G1 X30.083 Y83.304 E1.58637
G1 X29.507 Y83.844 E1.63159
G1 X28.869 Y84.308 E1.67679
G1 X28.177 Y84.688 E1.72202
G1 X27.443 Y84.979 E1.76723
G1 X27.063 Y85.089 E1.78985
G1 X26.678 Y85.175 E1.81248
G1 X25.895 Y85.274 E1.85769
G1 X25.105 Y85.274 E1.90291
G1 X24.322 Y85.175 E1.94812
G1 X23.557 Y84.979 E1.99335
G1 X23.186 Y84.845 E2.01596
G1 X22.471 Y84.509 E2.06117
G1 X21.805 Y84.086 E2.10639
G1 X21.197 Y83.583 E2.15161
G1 X20.848 Y83.235 E2.17980
G1 X20.434 Y83.152 E2.20403
G1 X19.922 Y82.986 E2.23482
G1 X19.675 Y82.879 E2.25026
G1 X19.203 Y82.619 E2.28109
G1 X18.768 Y82.303 E2.31193
G1 X16.834 Y80.598 E2.45958
G1 X18.081 Y80.508 F6600.000
G1 X18.333 Y80.256 E2.48000 F360.000
G1 X18.167 Y79.635 E2.51677
G1 X18.113 Y79.213 E2.54115
G1 X18.113 Y78.787 E2.56557
G1 X18.167 Y78.364 E2.58995
G1 X18.213 Y78.156 E2.60219
G1 X18.345 Y77.751 E2.62657
G1 X18.430 Y77.555 E2.63882
G1 X18.635 Y77.182 E2.66321
G1 X18.885 Y76.837 E2.68762
G1 X19.177 Y76.526 E2.71202
G1 X19.505 Y76.255 E2.73641
G1 X19.682 Y76.135 E2.74864
G1 X20.055 Y75.930 E2.77305
G1 X20.251 Y75.845 E2.78527
G1 X20.656 Y75.713 E2.80966
G1 X20.864 Y75.667 E2.82188
G1 X21.300 Y75.612 E2.84705
G1 X21.568 Y75.308 E2.87027
G1 X22.062 Y74.844 E2.90907
G1 X22.610 Y74.446 E2.94785
G1 X23.204 Y74.120 E2.98665
G1 X23.615 Y73.949 E3.01215
G1 X24.159 Y73.776 E3.04484
G1 X24.489 Y73.702 E3.06425
G1 X25.161 Y73.617 E3.10304
G1 X25.839 Y73.617 E3.14183 F360.000
G1 X26.511 Y73.702 E3.18062
G1 X26.841 Y73.776 E3.20003
G1 X27.485 Y73.985 E3.23883
G1 X28.098 Y74.274 E3.27761
G1 X28.390 Y74.446 E3.29703
G1 X28.938 Y74.844 E3.33581
G1 X29.192 Y75.068 E3.35522
G1 X29.656 Y75.562 E3.39401
G1 X30.054 Y76.110 E3.43281
G1 X30.380 Y76.704 E3.47160
G1 X30.515 Y77.015 E3.49101
G1 X30.724 Y77.659 E3.52980
G1 X30.851 Y78.324 E3.56858
G1 X30.883 Y78.661 E3.58800
G1 X30.893 Y79.000 E3.60740
G1 X30.851 Y79.676 E3.64620
G1 X30.724 Y80.341 E3.68498
G1 X30.515 Y80.985 E3.72378
G1 X30.380 Y81.296 E3.74319
G1 X30.054 Y81.890 E3.78197
G1 X29.656 Y82.438 E3.82077
G1 X29.192 Y82.932 E3.85957
G1 X28.670 Y83.363 E3.89836
G1 X28.098 Y83.726 E3.93715
G1 X27.796 Y83.880 E3.95656
G1 X27.167 Y84.129 E3.99534
G1 X26.511 Y84.298 E4.03414
G1 X25.839 Y84.383 E4.07293
G1 X25.161 Y84.383 E4.11173
G1 X24.489 Y84.298 E4.15052
G1 X23.833 Y84.129 E4.18932
G1 X23.515 Y84.015 E4.20872
G1 X22.902 Y83.726 E4.24751
G1 X22.610 Y83.554 E4.26692
G1 X22.062 Y83.156 E4.30571
G1 X21.808 Y82.932 E4.32511
G1 X21.300 Y82.388 E4.36772
G1 X21.075 Y82.367 E4.38070
G1 X20.656 Y82.287 E4.40511
G1 X20.251 Y82.155 E4.42950
G1 X19.865 Y81.973 E4.45395
G1 X19.682 Y81.865 E4.46613
G1 X19.337 Y81.615 E4.49054
G1 X18.137 Y80.557 E4.58213
G1 X19.217 Y80.016 F6600.000
G1 X19.078 Y79.622 E4.60607 F252.000
G1 X19.005 Y79.157 E4.63302
G1 X19.005 Y78.843 E4.65101
G1 X19.078 Y78.378 E4.67797
G1 X19.238 Y77.935 E4.70492
G1 X19.389 Y77.660 E4.72290
G1 X19.605 Y77.371 E4.74357
G1 X19.906 Y77.074 E4.76783
G1 X20.295 Y76.809 E4.79477
G1 X20.727 Y76.622 E4.82173
G1 X21.187 Y76.519 E4.84869
G1 X21.500 Y76.500 E4.86667
G1 X21.741 Y76.507 E4.88048
G1 X22.219 Y75.919 E4.92390
G1 X22.631 Y75.532 E4.95627
G1 X23.089 Y75.200 E4.98863
G1 X23.584 Y74.928 E5.02100
G1 X24.109 Y74.720 E5.05337
G1 X24.657 Y74.579 E5.08574
G1 X25.217 Y74.509 E5.11811
G1 X25.783 Y74.509 E5.15048
G1 X26.343 Y74.579 E5.18284 F252.000
G1 X26.891 Y74.720 E5.21522
G1 X27.157 Y74.816 E5.23141
G1 X27.668 Y75.056 E5.26377
G1 X27.911 Y75.200 E5.27997
G1 X28.369 Y75.532 E5.31234
G1 X28.781 Y75.919 E5.34471
G1 X29.141 Y76.355 E5.37708
G1 X29.300 Y76.589 E5.39327
G1 X29.572 Y77.084 E5.42563
G1 X29.780 Y77.609 E5.45801
G1 X29.859 Y77.881 E5.47420
G1 X29.965 Y78.436 E5.50656
G1 X30.000 Y79.000 E5.53893
G1 X29.965 Y79.564 E5.57130
G1 X29.859 Y80.119 E5.60367
G1 X29.780 Y80.391 E5.61986
G1 X29.572 Y80.916 E5.65223
G1 X29.300 Y81.411 E5.68460
G1 X29.141 Y81.645 E5.70079
G1 X28.781 Y82.081 E5.73316
G1 X28.369 Y82.468 E5.76553
G1 X27.911 Y82.800 E5.79790
G1 X27.668 Y82.944 E5.81409
G1 X27.157 Y83.184 E5.84646
G1 X26.619 Y83.359 E5.87883
G1 X26.064 Y83.465 E5.91120
G1 X25.500 Y83.500 E5.94357
G1 X24.936 Y83.465 E5.97593
G1 X24.381 Y83.359 E6.00831
G1 X24.109 Y83.280 E6.02450
G1 X23.584 Y83.072 E6.05686
G1 X23.332 Y82.944 E6.07306
G1 X22.855 Y82.641 E6.10542
G1 X22.419 Y82.281 E6.13779
G1 X22.032 Y81.869 E6.17016
G1 X21.915 Y81.718 E6.18110
G1 X21.915 Y81.487 E6.19430
G1 X21.343 Y81.495 E6.22709
G1 X21.031 Y81.456 E6.24508
G1 X20.580 Y81.325 E6.27202
G1 X20.160 Y81.111 E6.29898
G1 X19.906 Y80.926 E6.31696
G1 X19.384 Y80.467 E6.35680
G1 X19.423 Y80.428 E6.35993
G1 X19.248 Y80.084 E6.38202
G10 ; retract
G92 E0
G1 X25.958 Y74.040 F6600.000
G1 X39.465 Y135.850 F6600.000
G11 ; unretract
G1 X37.611 Y134.590 E0.12835 F360.000
G1 X34.200 Y131.945 E0.37558
G1 X30.962 Y129.090 E0.62282
G1 X27.910 Y126.038 E0.87006
G1 X25.055 Y122.800 E1.11729
G1 X22.410 Y119.389 E1.36453
G1 X19.983 Y115.819 E1.61177
G1 X17.786 Y112.103 E1.85901
G1 X15.826 Y108.257 E2.10625
G1 X14.112 Y104.295 E2.35348
G1 X12.650 Y100.234 E2.60072
G1 X11.445 Y96.088 E2.84796
G1 X10.504 Y91.876 E3.09519
G1 X9.828 Y87.612 E3.34243
G1 X9.422 Y83.315 E3.58967
G1 X9.287 Y79.000 E3.83691
G1 X9.422 Y74.685 E4.08415
G1 X9.828 Y70.388 E4.33138
G1 X10.504 Y66.124 E4.57862
G1 X11.445 Y61.912 E4.82586
G1 X12.650 Y57.766 E5.07309
G1 X14.112 Y53.705 E5.32033
G1 X15.826 Y49.743 E5.56757
G1 X17.786 Y45.897 E5.81481
G1 X19.983 Y42.181 E6.06205
G1 X22.410 Y38.611 E6.30928
G1 X25.055 Y35.200 E6.55652
G1 X27.910 Y31.962 E6.80376
G1 X30.962 Y28.910 E7.05100
G1 X34.200 Y26.055 E7.29823
G1 X37.611 Y23.410 E7.54547
G1 X39.465 Y22.150 E7.67382
G1 X39.465 Y135.775 E14.18167
G1 X40.357 Y137.536 F6600.000
G1 X37.086 Y135.313 E14.40819 F360.000
G1 X33.631 Y132.633 E14.65864
G1 X30.351 Y129.741 E14.90908
G1 X27.259 Y126.649 E15.15954
G1 X24.367 Y123.369 E15.40999
G1 X21.687 Y119.914 E15.66044
G1 X19.229 Y116.297 E15.91089
G1 X17.003 Y112.533 E16.16134
G1 X15.018 Y108.637 E16.41179
G1 X13.281 Y104.624 E16.66225
G1 X11.800 Y100.510 E16.91270
G1 X10.580 Y96.310 E17.16315
G1 X9.626 Y92.043 E17.41360
G1 X8.942 Y87.724 E17.66405
G1 X8.531 Y83.371 E17.91450
G1 X8.393 Y79.000 E18.16495
G1 X8.531 Y74.629 E18.41540
G1 X8.942 Y70.276 E18.66585
G1 X9.626 Y65.957 E18.91631
G1 X10.580 Y61.690 E19.16676
G1 X11.800 Y57.490 E19.41721
G1 X13.281 Y53.376 E19.66766
G1 X15.018 Y49.363 E19.91811
G1 X17.003 Y45.467 E20.16856
G1 X19.229 Y41.703 E20.41901
G1 X21.687 Y38.086 E20.66946
G1 X24.367 Y34.631 E20.91991
G1 X27.259 Y31.351 E21.17036
G1 X30.351 Y28.259 E21.42082
G1 X33.631 Y25.367 E21.67127
G1 X37.086 Y22.687 E21.92172
G1 X40.357 Y20.464 E22.14824
G1 X40.357 Y137.461 E28.84922
G1 X41.250 Y139.131 F6600.000
G1 X40.224 Y138.525 E28.91747 F252.000
G1 X36.561 Y136.035 E29.17113
G1 X33.062 Y133.321 E29.42480
G1 X29.740 Y130.392 E29.67846
G1 X26.608 Y127.260 E29.93213
G1 X23.679 Y123.938 E30.18579
G1 X20.965 Y120.439 E30.43945
G1 X18.475 Y116.776 E30.69312
G1 X16.221 Y112.964 E30.94679
G1 X14.210 Y109.017 E31.20045
G1 X12.451 Y104.953 E31.45412
G1 X10.951 Y100.786 E31.70778
G1 X9.715 Y96.533 E31.96144
G1 X8.749 Y92.210 E32.21511
G1 X8.056 Y87.836 E32.46877
G1 X7.639 Y83.427 E32.72244
G1 X7.500 Y79.000 E32.97610
G1 X7.639 Y74.573 E33.22977
G1 X8.056 Y70.164 E33.48343
G1 X8.749 Y65.790 E33.73710
G1 X9.715 Y61.467 E33.99076
G1 X10.951 Y57.214 E34.24443
G1 X12.451 Y53.047 E34.49809
G1 X14.210 Y48.983 E34.75176
G1 X16.221 Y45.036 E35.00542
G1 X18.475 Y41.224 E35.25908
G1 X20.965 Y37.561 E35.51275
G1 X23.679 Y34.062 E35.76642
G1 X26.608 Y30.740 E36.02008
G1 X29.740 Y27.608 E36.27375
G1 X33.062 Y24.679 E36.52741
G1 X36.561 Y21.965 E36.78107
G1 X40.224 Y19.475 E37.03474
G1 X41.250 Y18.868 E37.10299
G1 X41.250 Y139.056 E43.98674
G1 X40.931 Y138.746 F6600.000
G1 X31.631 Y128.843 F6600.000
G1 X28.157 Y125.369 E44.26813 F810.000
G1 X22.586 Y118.532 F6600.000
G1 X38.468 Y134.414 E45.55451 F810.000
G1 X38.837 Y133.518 E45.61003
G1 X20.095 Y114.776 E47.12810
G1 X18.284 Y111.699 F6600.000
G1 X38.837 Y132.252 E48.79292 F810.000
G1 X38.837 Y130.986 E48.86542
G1 X16.969 Y109.118 E50.63675
G1 X15.851 Y106.734 F6600.000
G1 X38.837 Y129.721 E52.49866 F810.000
G1 X38.837 Y128.455 E52.57116
G1 X14.885 Y104.502 E54.51128
G1 X14.123 Y102.475 F6600.000
G1 X38.837 Y127.189 E56.51311 F810.000
G1 X38.837 Y125.923 E56.58561
G1 X13.411 Y100.497 E58.64513
G1 X12.848 Y98.668 E58.75473
G1 X38.837 Y124.657 E60.85986
G1 X38.837 Y123.392 E60.93236
G1 X12.329 Y96.884 E63.07948
G1 X11.883 Y95.171 E63.18083
G1 X38.837 Y122.126 E65.36411
G1 X38.837 Y120.860 E65.43661
G1 X11.519 Y93.541 E67.64940
G1 X11.154 Y91.911 E67.74508
G1 X38.837 Y119.594 E69.98739
G1 X38.837 Y118.328 E70.05989
G1 X10.904 Y90.395 E72.32245
G1 X10.666 Y88.891 E72.40967
G1 X38.837 Y117.063 E74.69153
G1 X38.837 Y115.797 E74.76403
G1 X10.438 Y87.397 E77.06434
G1 X10.306 Y85.999 E77.14477
G1 X38.837 Y114.531 E79.45579
G1 X38.837 Y113.265 E79.52828
G1 X10.174 Y84.601 E81.85001
G1 X10.046 Y83.208 E81.93014
G1 X38.837 Y111.999 E84.26220
G1 X38.837 Y110.733 E84.33469
G1 X10.005 Y81.901 E86.67007
G1 X9.964 Y80.594 E86.74496
G1 X38.837 Y109.468 E89.08367
G1 X38.837 Y108.202 E89.15616
G1 X9.923 Y79.287 E91.49820
G1 X9.944 Y78.043 E91.56950
G1 X38.837 Y106.936 E93.90983
G1 X38.837 Y105.670 E93.98233
G1 X9.983 Y76.815 E96.31953
G1 X10.021 Y75.588 E96.38985
G1 X38.837 Y104.404 E98.72393
G1 X38.837 Y82.886 F6600.000
G1 X31.451 Y75.499 E99.32225 F810.000
G1 X32.263 Y77.577 F6600.000
G1 X38.837 Y84.151 E99.85477 F810.000
G1 X38.837 Y85.417 E99.92727
G1 X32.415 Y78.994 E100.44751
G1 X32.313 Y80.159 E100.51445
G1 X38.837 Y86.683 E101.04291
G1 X38.837 Y87.949 E101.11541
G1 X32.062 Y81.174 E101.66419
G1 X31.689 Y82.067 E101.71962
G1 X38.837 Y89.215 E102.29859
G1 X38.837 Y90.480 E102.37109
G1 X31.222 Y82.865 E102.98791
G1 X30.673 Y83.582 E103.03962
G1 X38.837 Y91.746 E103.70092
G1 X38.837 Y93.012 E103.77342
G1 X30.034 Y84.209 E104.48645
G1 X29.317 Y84.757 E104.53817
G1 X38.837 Y94.278 E105.30932
G1 X38.837 Y95.544 E105.38182
G1 X28.506 Y85.213 E106.21863
G1 X27.611 Y85.583 E106.27413
G1 X38.837 Y96.810 E107.18345
G1 X38.837 Y98.075 E107.25595
G1 X26.582 Y85.820 E108.24866
G1 X25.405 Y85.909 E108.31623
G1 X38.837 Y99.341 E109.40421
G1 X38.837 Y100.607 E109.47671
G1 X23.963 Y85.733 E110.68152
G1 X21.813 Y84.848 F6600.000
G1 X38.837 Y101.873 E112.06052 F810.000
G1 X38.837 Y103.139 E112.13302
G1 X18.786 Y83.087 E113.75713
G1 X16.069 Y80.370 F6600.000
G1 X10.081 Y74.382 E114.24217 F810.000
G1 X10.190 Y73.225 E114.30870
G1 X16.634 Y79.669 E114.83064
G1 X16.631 Y78.401 E114.90329
G1 X10.299 Y72.069 E115.41617
G1 X10.409 Y70.913 E115.48270
G1 X16.870 Y77.374 E116.00609
G1 X17.271 Y76.509 E116.06069
G1 X10.557 Y69.795 E116.60453
G1 X10.730 Y68.702 E116.66790
G1 X17.801 Y75.773 E117.24062
G1 X18.450 Y75.157 E117.29191
G1 X10.903 Y67.610 E117.90320
G1 X11.076 Y66.517 E117.96657
G1 X19.217 Y74.657 E118.62594
G1 X20.113 Y74.288 E118.68147
G1 X11.293 Y65.468 E119.39592
G1 X11.524 Y64.433 E119.45663
G1 X20.922 Y73.831 E120.21782
G1 X21.633 Y73.276 E120.26947
G1 X11.756 Y63.399 E121.06953
G1 X11.987 Y62.364 E121.13025
G1 X22.433 Y72.810 E121.97637
G1 X23.333 Y72.445 E122.03202
G1 X12.256 Y61.368 E122.92923
G1 X12.541 Y60.387 E122.98773
G1 X24.344 Y72.190 E123.94375
G1 X25.506 Y72.086 E124.01058
G1 X12.826 Y59.406 E125.03765
G1 X13.111 Y58.425 E125.09615
G1 X26.927 Y72.241 E126.21523
G1 X28.983 Y73.031 F6600.000
G1 X13.423 Y57.471 E127.47561 F810.000
G1 X13.758 Y56.540 E127.53227
G1 X38.837 Y81.620 E129.56369
G1 X38.837 Y80.354 E129.63619
G1 X14.093 Y55.609 E131.64048
G1 X14.428 Y54.679 E131.69714
G1 X38.837 Y79.088 E133.67428
G1 X38.837 Y77.822 E133.74678
G1 X14.773 Y53.757 E135.69601
G1 X15.155 Y52.874 E135.75115
G1 X38.837 Y76.557 E137.66941
G1 X38.837 Y75.291 E137.74191
G1 X15.537 Y51.990 E139.62920
G1 X15.919 Y51.107 E139.68434
G1 X38.837 Y74.025 E141.54067
G1 X38.837 Y72.759 E141.61317
G1 X16.302 Y50.223 E143.43853
G1 X16.718 Y49.374 E143.49271
G1 X38.837 Y71.493 E145.28434
G1 X38.837 Y70.227 E145.35684
G1 X17.145 Y48.536 E147.11386
G1 X17.573 Y47.697 E147.16776
G1 X38.837 Y68.962 E148.89018
G1 X38.837 Y67.696 E148.96268
G1 X18.000 Y46.858 E150.65049
G1 X18.436 Y46.029 E150.70416
G1 X38.837 Y66.430 E152.35662
G1 X38.837 Y65.164 E152.42912
G1 X18.907 Y45.234 E154.04347
G1 X19.377 Y44.438 E154.09640
G1 X38.837 Y63.898 E155.67265
G1 X38.837 Y62.633 E155.74514
G1 X19.848 Y43.643 E157.28329
G1 X20.318 Y42.847 E157.33622
G1 X38.837 Y61.367 E158.83626
G1 X38.837 Y60.101 E158.90876
G1 X20.813 Y42.076 E160.36873
G1 X21.325 Y41.323 E160.42091
G1 X38.837 Y58.835 E161.83939
G1 X38.837 Y57.569 E161.91189
G1 X21.837 Y40.569 E163.28888
G1 X22.349 Y39.816 E163.34107
G1 X38.837 Y56.304 E164.67658
G1 X38.837 Y55.038 E164.74908
G1 X22.862 Y39.062 E166.04310
G1 X23.410 Y38.345 E166.09481
G1 X38.837 Y53.772 E167.34441
G1 X38.837 Y52.506 E167.41690
